X:159
T: RUFEN NICHT DIE GLOCKENTOENE
N: F0292
O: Europa, Mitteleuropa, Deutschland
R: Jugend - Lied, religioes
M: 6/8
L: 1/8
K: Eb
 | G2EG2E | B2GB2G |
F2zB3 | G2z4 |
G2EB2G | =A2Fc2A |
B3F3 | D2z4 |
e2BB2G | FGAG2E |
DEFE2E | c2cB2A |
G2EB2G | e2z4 |
B2GA2F | E2z4

@@@ Tune index: 5590
